X:1
T:Salvation (Kentucky), CMD
T:Salvation (Kentucky), CMD
T:Kentucky Harmony, 1816
T:Public Domain Courtesy of the Cyber Hymnal™
C:Kentucky Harmony, 1816
Z:Public Domain
Z:Courtesy of the Cyber Hymnal™
%%score ( 1 2 ) ( 3 4 )
L:1/8
Q:1/4=115
M:4/4
K:F
V:1 treble 
V:2 treble 
V:3 bass 
V:4 bass 
V:1
 [A,A]4 | F2 D2 E2 C2 | D2 (DE) F2 G2 | A3 F (GF) [CE]2 | [A,D]4 [A,A]4 | F2 D2 E2 C2 | %6
 D2 (DE) F2 G2 | A3 F (GF) [CE]2 | [A,D]4 [CA]4 | c2 A2 (FG) (AB) | [Ec]2 (AB) [EG]2 [A,F]2 | %11
 G2 G2 A2 c2 | [Dd]4 [Fd]4 | c2 A2 (AG) (FE) | D2 (DE) F2 G2 | A3 F (GF) [CE]2 | D4 |] %17
V:2
 x4 | A,4 A,4 | A,4 B,4 | A,4 D2 x2 | x8 | A,4 A,4 | A,4 B,4 | D4 D2 x2 | x8 | C4 D4 | x2 D2 x4 | %11
 C4 E4 | x8 | E4 D4 | A,4 B,4 | A,4 D2 x2 | D4 |] %17
V:3
 A,,4 | [D,,D,]4 [A,,E,]4 | D,4 D,4 | [F,,D,]4 [G,,D,]2 A,,2 | [D,,D,]4 A,,4 | [D,,D,]4 [A,,E,]4 | %6
 D,4 [B,,D,]4 | [F,,D,]4 G,4 | D,4 [F,,F,]4 | [C,E,]4 [B,,F,]4 | [A,,A,]2 [D,F,]2 [C,G,]2 D,2 | %11
 [C,E,]4 [A,,A,]4 | [D,A,]4 [D,A,]4 | [A,,C]4 [B,,G,]4 | D,4 [B,,D,]4 | [F,,D,]4 [G,,D,]2 A,,2 | %16
 [D,,D,]4 |] %17
V:4
 A,,4 | x8 | D,4 B,,2 G,,2 | x6 A,,2 | x4 A,,4 | x8 | D,4 x4 | x4 G,,2 C,2 | D,4 x4 | x8 | x6 D,2 | %11
 x8 | x8 | x8 | D,4 x4 | x6 A,,2 | x4 |] %17

